X:519
T:William Taylor's Tabletop Hornpipe
C:Dave Shepherd
M:4/4
Z: Contributed 2018-01-10 15:29:40 by Peter Jenner p_jenner@btinternet.com
K:Em
E2 E2 EFGE | FGFE D2 B,2 | B2 B2 ABAG | FEDE FGAF |
E2 E2 EFGE | FGFE D2 B,2 | BAGF EGFD  | E2 E2 E4 :||
BGEG B2 B2 | AFDF A2 A2 | GFED E2 EG | FEDE F2 F2 |
BGEG B2 B2 | AFDF A2 A2 | GFED EGFD | E2 E2 E4 :||


 Posted by  Reasonably Accurate Melodeonist     at  15:19

Email This

BlogThis!

Share to Twitter

Share to Facebook

Share to Pinterest




